X:1842
T:Fahey's
O:england
M:4/4
L:1/8
S:Session playing
K:DDor
D2DE FEFG|Ad^cA d2de|fedf edcA|dcAG FDEC|\
D2DE FEFG|Ad^cA d2de|fedf edcA|dcAG FDEC::\
Addd ^fddd|~c2Gc AcGc|Addd ^fddd|cBcd ed ~d2|\
a2^ga ABcA|c2AG FDEC|D2DE FEFG|Ad^cA d4:|


